X:198
T:Scholar
M:C
L:1/8
K:D Mixolydian
A|dfaf gfeg|fdAG FGAc|BGG2 EFGg|fde^c dcBA|!
dfaf gfeg|fdAG FGAc|BGG2 EFGg|fde^c d3:|!
^g|a^gaf dfaf|dfaf bagf|gfge cege|cege agfe|!
a^gaf dfaf|dfaf bagf|gfef gbag|fde^c d3:|!
